X: 0621
T: LUCY NEAL
B: Oliver Ditson "The Boston Collection of Instrumental Music" 1910 p.62 #1
F: http://conquest.imslp.info/files/imglnks/usimg/8/8f/IMSLP175643-PMLP309456-bostoncollection00bost_bw.pdf
M: 2/4
L: 1/16
K: G
D2 |\
G2G2G2G2 | G2G2G2 EF | G2GA G2F2 | E2 BG E2 FG |\
A2F2 D2F2 | A2c2 B2A2 | G2G2 F2A2 | G2G2G2 :|
|: BA |\
G2D2 G2A2 | BDGA B2d2 | c2B2 A2G2 | E2 GF E2 FG |\
A2F2 D2F2 | A2cB dBcA | G2G2 F2A2 | G2B2G2 :|

%%sep 1 1 500
%%sep 1 1 500
